groups/cycloalkanes/cyclobutane.svg

<?xml version='1.0' encoding='iso-8859-1'?>
<svg version='1.1' baseProfile='full'
              xmlns='http://www.w3.org/2000/svg'
                      xmlns:rdkit='http://www.rdkit.org/xml'
                      xmlns:xlink='http://www.w3.org/1999/xlink'
                  xml:space='preserve'
width='256px' height='256px' viewBox='0 0 256 256'>
<!-- END OF HEADER -->
<rect style='opacity:1.0;fill:#FFFFFF;stroke:none' width='256.0' height='256.0' x='0.0' y='0.0'> </rect>
<path class='bond-0 atom-0 atom-1' d='M 25.0,158.0 L 115.2,133.6' style='fill:none;fill-rule:evenodd;stroke:#000000;stroke-width:2.0px;stroke-linecap:butt;stroke-linejoin:miter;stroke-opacity:1' />
<path class='bond-1 atom-1 atom-2' d='M 115.2,133.6 L 161.7,52.5' style='fill:none;fill-rule:evenodd;stroke:#000000;stroke-width:2.0px;stroke-linecap:butt;stroke-linejoin:miter;stroke-opacity:1' />
<path class='bond-2 atom-2 atom-3' d='M 161.7,52.5 L 242.8,99.0' style='fill:none;fill-rule:evenodd;stroke:#000000;stroke-width:2.0px;stroke-linecap:butt;stroke-linejoin:miter;stroke-opacity:1' />
<path class='bond-3 atom-3 atom-4' d='M 242.8,99.0 L 196.3,180.1' style='fill:none;fill-rule:evenodd;stroke:#000000;stroke-width:2.0px;stroke-linecap:butt;stroke-linejoin:miter;stroke-opacity:1' />
<path class='bond-4 atom-4 atom-1' d='M 196.3,180.1 L 115.2,133.6' style='fill:none;fill-rule:evenodd;stroke:#000000;stroke-width:2.0px;stroke-linecap:butt;stroke-linejoin:miter;stroke-opacity:1' />
<path d='M 159.4,56.5 L 161.7,52.5 L 165.8,54.8' style='fill:none;stroke:#000000;stroke-width:2.0px;stroke-linecap:butt;stroke-linejoin:miter;stroke-miterlimit:10;stroke-opacity:1;' />
<path d='M 238.7,96.7 L 242.8,99.0 L 240.5,103.1' style='fill:none;stroke:#000000;stroke-width:2.0px;stroke-linecap:butt;stroke-linejoin:miter;stroke-miterlimit:10;stroke-opacity:1;' />
<path d='M 198.6,176.0 L 196.3,180.1 L 192.2,177.7' style='fill:none;stroke:#000000;stroke-width:2.0px;stroke-linecap:butt;stroke-linejoin:miter;stroke-miterlimit:10;stroke-opacity:1;' />
<path class='atom-1' d='M37.2481,203.108 C40.6307,202.191 39.4083,197.681 36.0257,198.598 C32.643,199.515 31.4206,195.004 34.8033,194.088 C38.1859,193.171 36.9635,188.661 33.5809,189.577 C30.1982,190.494 28.9758,185.984 32.3585,185.067 C35.7411,184.15 34.5187,179.64 31.1361,180.557 C27.7534,181.474 26.531,176.964 29.9137,176.047 C33.2963,175.13 32.0739,170.62 28.6912,171.537 C25.3086,172.454 24.0862,167.943 27.4688,167.027 C30.8515,166.11 29.6291,161.6 26.2464,162.516 C22.8638,163.433 21.6414,158.923 25.024,158.006 C28.4067,157.089 27.1843,152.579 23.8016,153.496 C20.419,154.413 19.1966,149.903 22.5792,148.986 C25.9619,148.069 24.7395,143.559 21.3568,144.476 C17.9742,145.392 16.7518,140.882 20.1344,139.965 C23.5171,139.049 22.2947,134.538 18.912,135.455 C15.5294,136.372 14.307,131.862 17.6896,130.945 C21.0723,130.028 19.8498,125.518 16.4672,126.435 C13.0846,127.352 11.8622,122.841 15.2448,121.925 C18.6274,121.008 17.405,116.498 14.0224,117.415 C10.6398,118.331 9.41736,113.821 12.8,112.904' style='fill:none;stroke:#7F7F7F;stroke-width:2.0px;stroke-linecap:butt;stroke-linejoin:miter;stroke-opacity:1' />
</svg>

<svg height="256" viewBox="0 0 256 256" width="256" xmlns="http://www.w3.org/2000/svg"><path d="m0 0h256v256h-256z" fill="#fff"/><g fill="none" stroke-width="2"><path d="m25 158 90.2-24.4" stroke="#000"/><path d="m115.2 133.6 46.5-81.1" stroke="#000"/><path d="m161.7 52.5 81.1 46.5" stroke="#000"/><path d="m242.8 99-46.5 81.1" stroke="#000"/><path d="m196.3 180.1-81.1-46.5" stroke="#000"/><path d="m159.4 56.5 2.3-4 4.1 2.3" stroke="#000" stroke-miterlimit="10"/><path d="m238.7 96.7 4.1 2.3-2.3 4.1" stroke="#000" stroke-miterlimit="10"/><path d="m198.6 176-2.3 4.1-4.1-2.4" stroke="#000" stroke-miterlimit="10"/><path d="m37.248 203.108c3.383-.917 2.16-5.427-1.222-4.51-3.383.917-4.605-3.594-1.223-4.51 3.383-.917 2.161-5.427-1.222-4.511-3.383.917-4.605-3.593-1.222-4.51 3.382-.917 2.16-5.427-1.223-4.51s-4.605-3.593-1.222-4.51c3.382-.917 2.16-5.427-1.223-4.51-3.382.917-4.605-3.594-1.222-4.51 3.383-.917 2.16-5.427-1.223-4.511-3.382.917-4.605-3.593-1.222-4.51s2.16-5.427-1.222-4.51c-3.383.917-4.605-3.593-1.223-4.51 3.383-.917 2.161-5.427-1.222-4.51-3.383.916-4.605-3.594-1.223-4.511 3.383-.916 2.161-5.427-1.222-4.51s-4.605-3.593-1.222-4.51c3.382-.917 2.16-5.427-1.223-4.51-3.382.917-4.605-3.594-1.222-4.51 3.382-.917 2.16-5.427-1.223-4.51-3.382.916-4.605-3.594-1.222-4.511" stroke="#7f7f7f"/></g></svg>
